X:1
T:His Love Can Never Fail
T:Edwin Othello Excell
T:His Love Can Never Fail
T:Public Domain
T:Public Domain
T:Public Domain
C:Edwin Othello Excell
Z:Public Domain
%%score ( 1 2 ) 3
L:1/8
M:4/4
K:Eb
V:1 treble 
V:2 treble 
V:3 bass 
V:1
 [EB]2 | [EB]3 [Ec] [EB]2 [EG]2 | [DG]3 [B,F] [B,E]3 [B,E] | [CA]3 [EA] [Ee]2 [Ac]2 | [GB]6 [EG]2 | %5
w: 1.~I|do not ask to|see the way My|feet will have to|tread; But|
w: 2.~And|if my feet would|go a- stray, They|can- not, for I|know That|
w: 3.~I|will not fear, tho’|dark- ness come A-|broad o’er all the|land, If|
 [FA]3 [EG] [DF]2 [Ac]2 | [GB]3 [FA] [EG]2 [Ge]2 | [E=A]3 [EA] [DB]2 [Ec]2 | [DB]6 [DB]2 | %9
w: on- ly that my|soul may feed Up-|on the liv- ing|Bread. ’Tis|
w: Je- sus guides my|falt- ’ring steps, As|joy- ful- ly I|go. And|
w: I may on- ly|feel the touch Of|His own lov- ing|hand. And|
 [DB]3 [DF] [EG]2 [FA]2 | [Ac]3 [GB] [GB]2 [EG]2 | [FA]3 [=EG] [FA]2 [Ac]2 | [GB]6 [GB]2 | %13
w: bet- ter far that|I should walk By|faith close to His|side; I|
w: tho’ I may not|see His face, My|faith is strong and|clear, That|
w: tho’ I trem- ble|when I think How|weak I am, and|frail, My|
 [Ge]2 [Ee]2 [CF]3 [Ee] | [Ed]2 [Ec]2 [B,E]3 [DF] | [DG]3 [DA] [DF]2 [DG]2 | E6 ||"^Refrain" B2 | %18
w: may not know the|way I go, But|oh, I know my|Guide.||
w: in each hour of|sore dis- tress My|Sav- ior will be|near.|love|
w: soul is sat- is-|fied to know His|love can nev- er|fail.||
 (z3 G [GB])[EB][DB][FB] | [EB]6 e2 | (z3 G [Ge])[Ge][Fd][Af] | [Ge]6 [GB]2 | %22
w: ||||
w: * * can nev- er|* His|* * love can nev-|* fail,|
w: ||||
 [Ge]2 [Ee]2 [CF]3 [Ee] | [Ed]2 [Ec]2 [B,E]3 [DF] | [DG]3 [DA] [DF]2 [DG]2 | E6 |] %26
w: ||||
w: My soul is sat-|is- fied to know|His love can nev-|er|
w: ||||
V:2
 x2 | x8 | x8 | x8 | x8 | x8 | x8 | x8 | x8 | x8 | x8 | x8 | x8 | x8 | x8 | x8 | E6 || x2 | %18
w: ||||||||||||||||||
w: ||||||||||||||||His||
 B4- x4 | x8 | e4- x4 | x8 | x8 | x8 | x8 | E6 |] %26
w: ||||||||
w: fail,||er|||||fail.|
V:3
 [E,G,]2 | [E,G,]3 [E,A,] [E,G,]2 [E,B,]2 | [B,,B,]3 [B,,A,] [E,G,]3 [E,G,] | %3
w: ~|~ ~ ~ ~|~ ~ ~ ~|
 [A,,A,]3 [A,C] [A,C]2 [A,E]2 | [E,E]6 [E,B,]2 | [B,,B,]3 [B,,B,] [B,,B,]2 [B,,D]2 | %6
w: ~ ~ ~ ~|~ ~|~ ~ ~ ~|
 [E,E]3 [E,B,] [E,B,]2 [C,C]2 | [F,C]3 [F,C] [F,B,]2 [F,=A,]2 | [B,,B,]6 [B,,F,]2 | %9
w: ~ ~ ~ ~|~ ~ ~ ~|~ ~|
 [B,,F,]3 [B,,B,] [B,,B,]2 [B,,D]2 | [E,E]3 [E,E] [E,E]2 [E,B,]2 | %11
w: ~ ~ ~ ~|~ ~ ~ ~|
 [B,,B,]3 [B,,B,] [B,,B,]2 [B,,D]2 | [E,E]6 [E,E]2 | [E,B,]2 [E,G,]2 [A,,A,]3 [A,,C] | %14
w: ~ ~ ~ ~|~ ~|~ ~ ~ ~|
 [A,,B,]2 [A,,A,]2 [B,,G,]3 [B,,A,] | [B,,B,]3 [B,,C] [B,,A,]2 [B,,B,]2 | [E,G,]6 || z2 | %18
w: ~ ~ ~ ~|~ ~ ~ ~|~||
 z3 [E,B,] [E,B,][B,,G,][B,,F,][B,,A,] | [E,G,]6 z2 | z3 [E,B,] [E,B,][E,B,][B,,B,][B,,B,] | %21
w: His love can nev- er|fail,|His love can nev- er|
 [E,B,]6 [E,E]2 | [E,B,]2 [E,G,]2 [A,,A,]3 [A,,C] | [A,,B,]2 [A,,A,]2 [B,,G,]3 [B,,A,] | %24
w: fail, *|||
 [B,,B,]3 [B,,C] [B,,A,]2 [B,,B,]2 | [E,G,]6 |] %26
w: ||

